artwork/resources/intui/icons/shell/filetree/tflite-file.svg

<svg width="16" height="16" viewBox="0 0 16 16" fill="none" xmlns="http://www.w3.org/2000/svg"><path d="M7 1.5V15l-2-1.5v-8l-3 2V5l5-3.5zM9 1.5V15l2-1.5V10l2 1.5V9l-2-1.5v-2l3 2V5L9 1.5z" fill="#FF6F00"/></svg>

<svg width="16" height="16" viewBox="0 0 16 16" fill="none" xmlns="http://www.w3.org/2000/svg">
<path d="M7 1.5V15L5 13.5V5.5L2 7.5V5L7 1.5Z" fill="#FF6F00"/>
<path d="M9 1.5V15L11 13.5V10L13 11.5V9L11 7.5V5.5L14 7.5V5L9 1.5Z" fill="#FF6F00"/>
</svg>
